X: 28410
T: Mulhaire's
R: reel
M: 4/4
K: Dmajor
|:F2AF DFAF|G2BG dGBG|1 ceAc eAce|dcde fdAG:|2 dcde gecd|eddc defg|
|:a2fd adfd|adfd edBd|1 eeef ggga|befg gfed:|2 FFFA GBdB|AGFE D2fg|
|:a2fd adfd|adfd edBd|1 edef gfga|befg gfed:|2 FFFA GBdB|AGFE D4|

